X: 1
T: The Ghost Of Ballybrolly
M: 6/8
L: 1/8
K: Emin
"Em"ABB eze-|edB A3|"A"AGE G2B|"Bm"E B/2c/2d edB|
"Em"~B3 eBe|edB A2A|"A"AGE G3|"Bm"AED E2z|
"Em"ABB eBe|edB A2A|"A"AGE G2B|"D"E B/2c/2d e2e-|
"A"ged BAB|edB A2A|"D"AGE G3|AED E2z|
|:"C"cGE E2 c|"G"BGA E2d|"D"AFD DEF|"G"GAB dBe-|
[1"C"cGE E2 c|"D"BGA E2d|AFD DEF|"A"{D}E3 FGA:|
[2"A"edB e2g|deB- Bed|"D"BAA ABd|"Bm"ez2 g3|]
